src/assets/anj-active.svg

<svg width="27" height="30" viewBox="0 0 27 30" fill="none" xmlns="http://www.w3.org/2000/svg">
<path fill-rule="evenodd" clip-rule="evenodd" d="M17.5825 17.4965C17.5838 17.4958 17.5852 17.495 17.5866 17.4942C17.5868 17.4941 17.5869 17.494 17.5872 17.4939C17.5877 17.4937 17.5881 17.4934 17.5884 17.4932C17.5861 17.4945 17.5842 17.4956 17.5825 17.4965Z" fill="#2B2C2A"/>
<path fill-rule="evenodd" clip-rule="evenodd" d="M17.5909 17.4919C17.5912 17.4918 17.5914 17.4917 17.5917 17.4916C17.5964 17.4888 17.5989 17.4874 17.5998 17.4869C17.6 17.4868 17.6001 17.4867 17.6002 17.4867C17.5967 17.4887 17.5936 17.4905 17.5909 17.4919Z" fill="#2B2C2A"/>
<path fill-rule="evenodd" clip-rule="evenodd" d="M22.0022 15.0002C18.501 16.9785 17.7395 17.4087 17.6018 17.4866C17.6019 17.4865 17.6017 17.4867 17.6012 17.4868C17.5999 17.4876 17.5964 17.4896 17.5923 17.4919C17.5912 17.4925 17.5899 17.4933 17.5886 17.494C17.5883 17.4941 17.5881 17.4942 17.5879 17.4944C17.5851 17.496 17.5816 17.498 17.5776 17.5002C17.5773 17.5004 17.577 17.5006 17.5768 17.5007C17.5765 17.5009 17.5762 17.5011 17.576 17.5012C17.574 17.5023 17.5744 17.5021 17.576 17.5012C17.5761 17.5011 17.5765 17.5009 17.5768 17.5007C17.5769 17.5006 17.577 17.5006 17.5771 17.5005C17.4464 17.5743 16.701 17.9955 13.2052 19.9708C7.79031 16.9094 9.59837 17.9313 4.40918 14.9999C6.091 14.0497 11.5271 10.9781 13.2062 10.0294C18.6407 13.1019 16.5684 11.9307 22.0022 15.0002ZM0.010616 7.54454C0.00992736 19.4496 0.0125393 11.5065 0.0111463 22.4556C10.1863 28.2035 3.07171 24.1868 13.2057 29.9112C14.5434 29.1556 24.8671 23.3224 26.4008 22.4556C26.4015 10.5506 26.3988 18.4936 26.4002 7.54454C16.1421 1.75009 23.2742 5.77642 13.2057 0.0889893C4.18282 5.18705 7.53025 3.29564 0.010616 7.54454Z" fill="#2B2C2A"/>
<path fill-rule="evenodd" clip-rule="evenodd" d="M13.2058 29.9111C14.5432 29.1555 24.8672 23.3221 26.4005 22.4557L26.4011 17.4849C24.7741 18.4042 14.8326 24.0215 13.2065 24.9403C11.9338 24.2215 5.6863 20.6924 4.40855 19.9706L4.40916 14.9998C6.09376 14.0481 11.5243 10.9796 13.2062 10.0293C18.6125 13.0858 16.5867 11.941 22.0022 15.0001L22.0028 10.0294C20.7301 9.31051 14.4826 5.78144 13.2049 5.05957C11.7948 5.85633 1.38021 11.7409 0.0102539 12.5149C0.0119081 18.6239 0.011734 16.3704 0.0110375 22.4554C10.1863 28.2032 3.07177 24.1865 13.2058 29.9111Z" fill="url(#paint0_linear)"/>
<path opacity="0.2" fill-rule="evenodd" clip-rule="evenodd" d="M13.2058 29.9111C14.5432 29.1555 24.8672 23.3221 26.4005 22.4557L26.4011 17.4849C24.7741 18.4042 14.8326 24.0215 13.2065 24.9403C11.9338 24.2215 5.6863 20.6924 4.40855 19.9706L4.40916 14.9998C6.09376 14.0481 11.5243 10.9796 13.2062 10.0293C18.6125 13.0858 16.5867 11.941 22.0022 15.0001L22.0028 10.0294C20.7301 9.31051 14.4826 5.78144 13.2049 5.05957C11.7948 5.85633 1.38021 11.7409 0.0102539 12.5149C0.0119081 18.6239 0.011734 16.3704 0.0110375 22.4554C10.1863 28.2032 3.07177 24.1865 13.2058 29.9111Z" fill="white"/>
<path fill-rule="evenodd" clip-rule="evenodd" d="M13.2049 5.05967C14.4775 5.77855 20.725 9.30771 22.0028 10.0295L22.0022 15.0002C12.9684 20.1045 22.2415 14.865 13.2051 19.9708C7.80013 16.9149 9.79407 18.0419 4.40916 14.9999L4.40855 19.9707C5.68125 20.6896 11.9287 24.2186 13.2065 24.9404C14.8329 24.0215 24.7748 18.404 26.4011 17.485C26.3994 11.3762 26.3996 13.6295 26.4003 7.54471C16.142 1.74992 23.2742 5.77659 13.2055 0.0889893C4.18271 5.18714 7.53023 3.29564 0.0108634 7.54437L0.0102539 12.515C1.36793 11.7479 11.9004 5.79679 13.2049 5.05967Z" fill="url(#paint1_linear)"/>
<path opacity="0.5" fill-rule="evenodd" clip-rule="evenodd" d="M13.2049 5.05967C14.4775 5.77855 20.725 9.30771 22.0028 10.0295L22.0022 15.0002C12.9684 20.1045 22.2415 14.865 13.2051 19.9708C7.80013 16.9149 9.79407 18.0419 4.40916 14.9999L4.40855 19.9707C5.68125 20.6896 11.9287 24.2186 13.2065 24.9404C14.8329 24.0215 24.7748 18.404 26.4011 17.485C26.3994 11.3762 26.3996 13.6295 26.4003 7.54471C16.142 1.74992 23.2742 5.77659 13.2055 0.0889893C4.18271 5.18714 7.53023 3.29564 0.0108634 7.54437L0.0102539 12.515C1.36793 11.7479 11.9004 5.79679 13.2049 5.05967Z" fill="white"/>
<defs>
<linearGradient id="paint0_linear" x1="23.8858" y1="9.81837" x2="3.75827" y2="29.0707" gradientUnits="userSpaceOnUse">
<stop stop-color="#FF8989"/>
<stop offset="1" stop-color="#FFB170"/>
</linearGradient>
<linearGradient id="paint1_linear" x1="23.8858" y1="4.84778" x2="3.75833" y2="24.1001" gradientUnits="userSpaceOnUse">
<stop stop-color="#FF8989"/>
<stop offset="1" stop-color="#FFB170"/>
</linearGradient>
</defs>
</svg>

<svg width="27" height="30" fill="none" xmlns="http://www.w3.org/2000/svg"><path fill-rule="evenodd" clip-rule="evenodd" d="M17.582 17.497a.192.192 0 00.005-.003h.001l-.006.003zM17.59 17.492h.002a.31.31 0 01.008-.005l-.01.005z" fill="#2B2C2A"/><path fill-rule="evenodd" clip-rule="evenodd" d="M22.002 15l-4.4 2.487a.366.366 0 01-.01.005l-.003.002h-.001l-.01.006h-.001l-.001.001c-.002.001-.002.001 0 0h.001l-4.372 2.47C7.79 16.909 9.598 17.93 4.41 15l8.797-4.97L22.002 15zM.011 7.545c-.001 11.905.002 3.962 0 14.91 10.175 5.748 3.06 1.732 13.195 7.456L26.4 22.456c0-11.905-.002-3.962 0-14.911C16.141 1.75 23.273 5.776 13.205.089L.01 7.545z" fill="#2B2C2A"/><path fill-rule="evenodd" clip-rule="evenodd" d="M13.206 29.911L26.4 22.456v-4.971L13.207 24.94l-8.798-4.97V15l8.797-4.97c5.407 3.056 3.38 1.911 8.796 4.97v-4.97c-1.272-.72-7.52-4.249-8.797-4.97L.01 12.515c.002 6.109.002 3.855.001 9.94 10.175 5.748 3.06 1.732 13.195 7.456z" fill="url(#paint0_linear)"/><path opacity=".2" fill-rule="evenodd" clip-rule="evenodd" d="M13.206 29.911L26.4 22.456v-4.971L13.207 24.94l-8.798-4.97V15l8.797-4.97c5.407 3.056 3.38 1.911 8.796 4.97v-4.97c-1.272-.72-7.52-4.249-8.797-4.97L.01 12.515c.002 6.109.002 3.855.001 9.94 10.175 5.748 3.06 1.732 13.195 7.456z" fill="#fff"/><path fill-rule="evenodd" clip-rule="evenodd" d="M13.205 5.06l8.798 4.97V15l-8.798 4.97C7.8 16.916 9.795 18.043 4.41 15v4.97c1.272.72 7.52 4.249 8.797 4.97l13.195-7.455c-.002-6.109-.001-3.855 0-9.94C16.141 1.75 23.273 5.777 13.205.089L.01 7.544v4.971L13.204 5.06z" fill="url(#paint1_linear)"/><path opacity=".5" fill-rule="evenodd" clip-rule="evenodd" d="M13.205 5.06l8.798 4.97V15l-8.798 4.97C7.8 16.916 9.795 18.043 4.41 15v4.97c1.272.72 7.52 4.249 8.797 4.97l13.195-7.455c-.002-6.109-.001-3.855 0-9.94C16.141 1.75 23.273 5.777 13.205.089L.01 7.544v4.971L13.204 5.06z" fill="#fff"/><defs><linearGradient id="paint0_linear" x1="23.886" y1="9.818" x2="3.758" y2="29.071" gradientUnits="userSpaceOnUse"><stop stop-color="#FF8989"/><stop offset="1" stop-color="#FFB170"/></linearGradient><linearGradient id="paint1_linear" x1="23.886" y1="4.848" x2="3.758" y2="24.1" gradientUnits="userSpaceOnUse"><stop stop-color="#FF8989"/><stop offset="1" stop-color="#FFB170"/></linearGradient></defs></svg>
